X: 15968
T: Granton Fish Bowl
R: jig
M: 6/8
K: Gmajor
D G2 A|:B3-B2 c|A3-A2 c|B2 GE G2|F2 G1/2F1/2 E2 D|
A3 A2 B|c3 c2 d|G2 FGAB|A2 d d2 c|
B2 ABcd|e3 d3|g2 dB G2|A3 B2 A|
G3 GAB|A2 D d2 c|B d2 G2 F|G2 D G2 A:|
|:B3 BAG|E3-E2 D|E G2 FGA|G2 G A2 B|
c3 c2 d|B2 c1/2B1/2 A2 G|G D2 G B2|A2 d d2 c|
B3 Bcd|e3 d3|g2 dB G2|A3 B2 A|
G3 GAB|A2 D d2 c|B d2 G2 F|G2 D G2 A:|

